X:1
T:Title
%%score { ( 1 3 ) | ( 2 4 ) }
L:1/8
M:4/4
K:F
V:1 treble nm="Grand Piano"
V:3 treble 
V:2 treble 
V:4 treble 
V:1
 z8[Q:1/4=90] | GFFE GFFD |[M:3/4] FE E_E =E2 |[M:1/4] BA |[M:4/4] [CEA][EG][B,EG][_E^F] AGD=E | %5
[M:3/4] [A,F][Ac] [CAc][_A=B] [C=Ac]2 |[M:1/4] z2 |[M:4/4] GFFE GFFC | %8
[M:3/4] .[G,CE]2 [CG][CA] [CG]2 |[M:1/4] GG |[M:4/4] AAAA =BBAB |[M:7/8] ccc c c3 | %12
[M:1/4] [Ec][Ed] |[M:4/4] dccF [^FA][Fc][FB][FA] | AGGD G2 GG | FEED E[DEB][CEA][B,EG] | %16
 [A,F][CFA][_Ad][A=B] [=Ac]2 cd |[M:3/4] dc cF A2 |[M:1/4] [^FA][FB] |[M:4/4] AGGA B2 FG | %20
 Acdf cA [EG]>F |[M:3/4] F6 |] %22
V:2
 z4 z2 AG | z2 [C,A,C]2 [F,A,C]2 [C,A,]2 |[M:3/4] z2 [C,B,C]2 [C,B,C]2 |[M:1/4] [DE][CE] | %4
[M:4/4] z B, z A, C,2 [C,B,]2 |[M:3/4] z C z D F,2 |[M:1/4][K:treble] AG | %7
[M:4/4][K:bass] z2 [C,A,C]2 [G,A,C]2 [C,A,]2 |[M:3/4] G,,F [G,,E,][G,,_E,] [G,,=E,]2 |[M:1/4] z2 | %10
[M:4/4][K:treble] [G,C^F]4 [G,D=F]4 |[M:7/8][K:bass] z [G,E][_A,F] [=A,^F] [B,EG]3 | %12
[M:1/4] [C,B,][C,B,] |[M:4/4] [F,A,F][F,A,F][F,A,F][F,A,] [D,C][D,A,][D,D][D,C] | %14
 [G,CD][G,B,D][G,B,D][G,B,] [G,B,D]2 [G,B,D][G,B,D] | [C,B,C][C,B,C][C,B,C][C,B,C] [C,B,C]C,C,C, | %16
 F,F,[F,=B,][F,D] [F,C]2 [F,A,F][F,B,F] |[M:3/4] [F,B,F][F,A,F] [F,A,F][F,A,] [F,CF]2 | %18
[M:1/4] [D,C][D,C] |[M:4/4][K:treble] [G,CD][G,B,D][B,D][A,DF] [G,DG]2 [B,^C][B,CF] | %20
 [CF][A,CF][_A,=B,F][A,B,F] [A,CF][CF][K:bass] [C,_B,]>[F,=A,] |[M:3/4] [F,A,C]2 [B,,F,]2 F,,2 |] %22
V:3
 x8 | [A,C]2 z2 z4 |[M:3/4] [B,C]2 z2 z2 |[M:1/4] x2 |[M:4/4] z4 [B,=E]2 z2 |[M:3/4] x6 | %6
[M:1/4] x2 |[M:4/4] [A,C]2 z2 z4 |[M:3/4] x6 |[M:1/4] x2 |[M:4/4] x8 |[M:7/8] x7 |[M:1/4] x2 | %13
[M:4/4] x8 | x8 | x8 | x8 |[M:3/4] x6 |[M:1/4] x2 |[M:4/4] x8 | x8 |[M:3/4] z2 D2 [A,C]2 |] %22
V:4
 x8 | F,,8 |[M:3/4] G,,4 z2 |[M:1/4] x2 |[M:4/4] C,,2 C,2 z4 |[M:3/4] F,,2 F,2 z2 | %6
[M:1/4][K:treble] x2 |[M:4/4][K:bass] F,,8 |[M:3/4] x6 |[M:1/4] x2 |[M:4/4][K:treble] x8 | %11
[M:7/8][K:bass] C,-C,-C,- C,- C,3 |[M:1/4] x2 |[M:4/4] x8 | x8 | x8 | x8 |[M:3/4] x6 |[M:1/4] x2 | %19
[M:4/4][K:treble] x8 | x6[K:bass] x2 |[M:3/4] x6 |] %22

